X:1
T:Aus Tiefer Not, 87.87.887
T:Aus Tiefer Not, 87.87.887
T:Melody by Martin Luther, 1524
T:Public Domain Courtesy of the Cyber Hymnal™
C:Melody by Martin Luther, 1524
Z:Public Domain
Z:Courtesy of the Cyber Hymnal™
%%score ( 1 2 ) ( 3 4 )
L:1/8
Q:1/4=110
M:4/4
K:C
V:1 treble 
V:2 treble 
V:3 bass 
V:4 bass 
V:1
 [EB]4 E2 [EB]2 | [Ec]2 [^DB]2 [EG]2 [CA]2 | [EB]4 [EB]2 [Ec]2 | [Fd]2 [Gc]2 [FA]2 [EG]2 | %4
 [DF]2 [B,E]4 [EB]2- x2 | [EB]2 E2 [EB]2 [Ec]2 | [^DB]2 [EG]2 [CA]2 [EB]2- | %7
 [EB]2 [EB]2 [Ec]2 [Fd]2 | [Gc]2 [FA]2 [EG]2 [DF]2 | [B,E]4 [EA]2 [DG]2 | [Gc]2 [GB]2 [EA]2 (dc) | %11
 [GB]2 [EA]4 [Fc]2 | [DB]2 [Ec]2 [Fd]2 [CG]2 | (Bc) [DA]2 [B,G]4 | [DG]2 [Cc]2 [EB]2 [CA]2 | %15
 [CE]2 (G2 F2) [B,E]2- | [B,E]6 z2 |] %17
V:2
 x4 E2 x2 | x8 | x8 | x8 | x10 | x2 E2 x4 | x8 | x8 | x8 | x8 | x6 A2 | x8 | x8 | D2 x6 | x8 | %15
 x2 D4 x2 | x8 |] %17
V:3
 G,4 [C,G,]2 [B,,G,]2 | [A,,A,]2 [B,,^F,]2 [C,E,]2 [A,,A,]2 | [E,G,]4 [E,G,]2 [A,,A,]2 | %3
 [D,A,]2 [E,C]2 [F,C]2 [C,C]2 | [D,A,]2 [E,^G,]4 =G,4 | D,2 [C,G,]2 [B,,G,]2 [A,,A,]2 | %6
 [B,,^F,]2 [C,E,]2 [A,,A,]2 [E,G,]2- | [E,G,]2 [E,G,]2 [A,,A,]2 [D,A,]2 | %8
 [E,C]2 [F,C]2 [C,C]2 [D,A,]2 | [E,^G,]4 [C,A,]2 [=G,B,]2 | [E,C]2 [G,D]2 [A,C]2 [F,D]2 | %11
 [G,D]2 [A,C]4 [F,A,]2 | G,2 [E,G,]2 [D,A,]2 [E,G,]2 | [B,,G,]2 [D,^F,]2 [G,,G,]4 | %14
 [B,,G,]2 [A,,A,]2 [E,G,]2 F,2 | [C,G,]2 [B,,G,]2 [D,A,]2 [E,^G,]2- | [E,G,]6 z2 |] %17
V:4
 (E,2 D,2) x4 | x8 | x8 | x8 | x6 E,2 x2 | x8 | x8 | x8 | x8 | x8 | x8 | x8 | G,2 x6 | x8 | %14
 x6 F,2 | x8 | x8 |] %17

